rospo-icon-theme-classic-common/16x16/apps/com.github.allen-b1.news.svg

<svg height="16" width="16" xmlns="http://www.w3.org/2000/svg"><rect fill="#c93e5f" height="16" rx=".8" width="16"/><g fill="#fff"><path d="m2 8h .5c3.038 0 5.5 2.462 5.5 5.5v.5h-.5c-.273 0-.5-.225-.5-.5 0-2.485-2.015-4.5-4.5-4.5-.273 0-.5-.225-.5-.5z"/><path d="m2 10h .5c1.933 0 3.5 1.567 3.5 3.5v.5h-.5c-.273 0-.5-.225-.5-.5 0-1.381-1.119-2.5-2.5-2.5-.273 0-.5-.225-.5-.5z"/><path d="m3 12c .552 0 1 .448 1 1s-.448 1-1 1-1-.448-1-1 .448-1 1-1z"/></g></svg>

<svg xmlns="http://www.w3.org/2000/svg" width="16" height="16" version="1">
 <rect style="fill:#c93e5f" width="16" height="16" x="0" y="0" rx=".8" ry=".8"/>
 <g>
  <path d="M 2,8 H 2.5 C 5.538,8 8,10.462 8,13.5 V 14 H 7.5 C 7.227,14 7,13.775 7,13.5 7,11.015 4.985,9 2.5,9 2.227,9 2,8.775 2,8.5 Z" style="fill:#ffffff"/>
  <path d="M 2,10 H 2.5 C 4.433,10 6,11.567 6,13.5 V 14 H 5.5 C 5.227,14 5,13.775 5,13.5 5,12.119 3.881,11 2.5,11 2.227,11 2,10.775 2,10.5 Z" style="fill:#ffffff"/>
  <path d="M 3,12 C 3.552,12 4,12.448 4,13 4,13.552 3.552,14 3,14 2.448,14 2,13.552 2,13 2,12.448 2.448,12 3,12 Z" style="fill:#ffffff"/>
 </g>
</svg>
